icons/badge/add/triangle.svg

<svg width="32" height="32" viewBox="0 0 32 32" fill="none" xmlns="http://www.w3.org/2000/svg">
<path fill-rule="evenodd" clip-rule="evenodd" d="M12.9879 3.75579C13.2549 3.28843 13.752 3 14.2902 3H17.7099C18.2482 3 18.7452 3.28843 19.0123 3.75579L30.715 24.2356C30.9969 24.7289 30.9759 25.3391 30.6607 25.8118L28.9806 28.3321C28.7024 28.7493 28.234 29 27.7325 29H4.26768C3.76615 29 3.2978 28.7493 3.01961 28.3321L1.33945 25.8118C1.02429 25.3391 1.00328 24.7289 1.28516 24.2356L12.9879 3.75579ZM14.5804 5L3.17496 24.9595L4.53527 27H27.4649L28.8252 24.9595L17.4198 5H14.5804ZM15.0001 18V13H17.0001V18H22.0001V20H17.0001V25H15.0001V20H10.0001V18H15.0001Z" fill="black"/>
</svg>

<svg width="32" height="32" viewBox="0 0 32 32" xmlns="http://www.w3.org/2000/svg">
    <path fill-rule="evenodd" d="M12.988 3.756A1.5 1.5 0 0114.29 3h3.42a1.5 1.5 0 011.302.756l11.703 20.48a1.5 1.5 0 01-.054 1.576l-1.68 2.52a1.5 1.5 0 01-1.248.668H4.268a1.5 1.5 0 01-1.248-.668l-1.68-2.52a1.5 1.5 0 01-.055-1.576l11.703-20.48zM14.58 5L3.175 24.96 4.535 27h22.93l1.36-2.04L17.42 5h-2.84zM15 18v-5h2v5h5v2h-5v5h-2v-5h-5v-2h5z"/>
</svg>
